X:1
T:Dies Irae Piano
T:REQUIEM III. Dies Irae 
T:WOLFGANG AMADEUS MOZART
T: Obra adaptada para sistema educativo reglado Etapa: secundaria Instrumentos: para voz y flauta dulce Dificultad técnica flauta: re#, fa#, sol #, sib, do# Consideraciones: se adaptado la melodía a la tonalidad más fácil para cantar e interpretar con la flauta, se ha suprimido algunas partes de voces que responden para conservar la línea melódica de la soprano o parte principal de la melodía. 
T:III. Dies Irae
T:W. A. Mozart
T:Adapted by José Joaquín García Merino
C:W. A. Mozart
%%score 1 { ( 2 4 5 6 ) | 3 }
L:1/8
Q:1/4=152
M:4/4
K:C
V:1 treble+8 nm="Flauta dulce \ny voz" snm="Fl. v."
V:2 treble nm="Piano" snm="Pno."
V:4 treble 
V:5 treble 
V:6 treble 
V:3 bass-8 
V:1
"^Allegro assai"!f! A4 E4 | B2 B2 z4 | B4 E4 | c2 A2 z2 AA | ^G2 A2 z2 AA | B2 c2 AA AA | %6
w: Di- es|i- rae|di- es|il- la sol- vet|sae- clum in fa-|vil- la _ _ te- ste|
 d2 c2 B2 A2 | A2 ^G2 E E2 E- | EEF^F G^GAB | c6 G2 | E2 E2 E2 G2 | _B4 A4 | d6 A2 | ^F2 D2 F2 A2 | %14
w: Da- vid cum Sy-|bi- la _ _ _|_ _ _ _ _ _ _ _|Quan- tus|tre- mor est fu-|tu- rus|Quan- do|ju- dex est ven-|
 c4 B4 | B4 B4 | B4 A4 | A2 G2 ^F4 | E2 z6 | z8 | z8 | B4 B4 | B2 A2 z4 | B4 B4 | B2 G2 z2 EE | %25
w: tu rus,|cun- cta|stric cte|dis- cus- su-|rus.|||Di- es|i- rae|di- es|il- la sol- vet|
 c2 B2 z2 EE | A2 B2 z2 BB | A2 G2 =F2 E2 | E2 ^D2 z4 | z8 | G6 d2 | _B2 G2 D2 G2 | G2 ^G2 ^G4 | %33
w: sae- clum in fa-|vi- la te- ste|Da- vid cum Sy-|bil la||Quan- tus|tre- mor est fu|tu _ rus|
 ^G6 d2 | B2 ^G2 E2 G2 | ^G2 A2 A4 | _B4 ^c4 | d4 =c4 | _B4 A4 | A2 ^G2 A3 A | ^GAGA GAGA | %41
w: quan- do|ju- dex est ven-|tu- * rus|cun- cta|stri- cte|dis- cus-|su- rus Quan- tus-|tre- * mor- * est- * fu- *|
 ^A2 =A2 B3 B | ^A2 B2 B3 B | ^A2 B2 =A3 A | ^GAGA GAGA | ^A2 =A2 B3 B | ^A2 B2 B3 B | %47
w: tu- rus Di- es|i- rae, di- es|il- la, Quan- tus-|tre- * mor- * est- * fu- *|tu- rus Di- es|i- rae, di- es|
 ^A2 B2 =A3 A | ^GAGA GAGA | A2 z2 d3 d | ^cdcd cdcd | d2 ^G2 z2 GG | A2 ^G2 A2 G2 | A2 ^G2 z2 AA | %54
w: il- la, quan- tus|tre- * mor- * est- * fu- *|turus Quan- tus|tre- * mor- * est- * fu- *|tu- rus quan- do|ju- dex est ven-|tu- rus cun- cta|
 d2 c2 d2 c2 | d2 c2 z4 | z2 A4 A2 | c2 A2 z4 | z4 d3 d | d2 c2 B4 | A2 A4 A2 | c2 A2 z4 | %62
w: stri- cte dis- cus-|su- rus|cun- cta|stri- cte|stri- cte,|dis- cu- su-|rus, cun- cta|stri- cte,|
 z4 d3 d | d2 c2 B4 | A2 z2 z4 | z8 | z8 | z8 |] %68
w: stri- cte|dis- cus- su-|rus||||
V:2
!f! [A,CEA]4 [A,CE]4 | [A,DEB]2 [A,DEB]2 z4 | [^G,DEB]4 [G,DE]4 | %3
 [CEAc]2 [A,CEA]2 z2 [A,CEA][A,CEA] | [B,E^G]2 A/E/A/c/ ee [A,EA][A,EA] | %5
 [B,EB]2 c/A/c/e/ aa [CE][CEA] | [DFAd]2 [EAc]2 [D^GB]2 [A,CFA]2 | %7
 [E,CEA]2 [E,B,E^G]2 [E,E] [E,E]2 [E,E]- | [E,E][E,E][F,F][^F,^F] [G,G][^G,C^G][A,C=FA][B,DFB] | %9
 [CEGc]6 [CEG]2 | E2 [G,E]2 E2 [CEG]2 | [G_B]4 [^CA]4 | [Ad]6 [DA]2 | %13
 [A,D^F]2 [A,D]2 [DF]2 [A,DFA]2 | [^DAc]4 [D^FB]4 | [EB]4 [^D^FB]4 | [EGB]2 [EG]2 [GA]2 ^FE | %17
 [B,^DA]2 [B,EG]2 ^F4 | [E,B,E]2 [Ge][^F=d] [Ec][B,EB][^CE^A][GA^c] | %19
 [B,^FB][=CE=A][Ac^f][EBe] [FA^d][CG=c][B,FB][B,^DA] | %20
 [B,G][Be][CEc][A,EA] [B,EG][Ge][B,^D^F][FB^d] | [B,EGB]4 [B,EGB]4 | [E^FAB]2 [EFA]2 z4 | %23
 [^D^FAB]4 [DFAB]4 | [GB]2 [EG]2 E[E,G,B,E][E,G,B,E][E,G,B,E] | [EAc]2 B/E/G/B/ ee [G,B,E][G,B,E] | %26
 [B,^D^FA]2 e/B/e/g/ bb [B,GB][B,FB] | [A,EA]2 [G,=DG]2 [A,C=F]2 [G,B,E]2 | %28
 [G,B,E]2 [^F,B,^D]2 [=DB] [B,D]2 [DB] | c[c_e]cA [D^F]=D[CD][A,D] | [G,_B,DG]6 [DG_Bd]2 | %31
 [_B,DG_B]2 [G,B,DG]2 [G,B,D]2 [G,B,DG]2 | [G,_B,DG]2 [=B,DF^G]2 [B,DFG]4 | [F,B,D^G]6 [FGBd]2 | %34
 [D^GB]2 [B,DG]2 [^G,B,E]2 [B,EG]2 | [B,DE^G]2 [CEA]2 [CEA]4 | [_B,DF_B]4 [EB^c]4 | %37
 [DFAd]4 [E=G=c]4 | [DF_B]4 [C^D^FA]4 | [CEA]2 [=B,E^G]2[K:bass] E,3 E, | ^D,E,D,E, D,E,D,E, | %41
 F,2 E,2[K:treble+8] B,[E,E][^G,^G][B,B] | [Cc][^D,^D]E[B,B] B,[E,E][^G,^G][B,B] | %43
 [Cc][^D,^D]E[B,B][K:bass] E,3 E, | ^D,E,D,E, D,E,D,E, | %45
 F,2 E,2[K:treble+8] [E,E][^G,^G][B,B][Ee] | [^D^d][^F,^F][E,E][Ee] [E,E][^G,^G][B,B][Ee] | %47
 [^D^d][^F,^F][E,E][Ee][K:bass] E,3 E, | ^D,E,D,E, D,E,D,E, | %49
[K:treble] =F,[D,D][F,F][A,A] [DFAd]3 [DFAd] | [E_B^c][FAd][EBc][FAd] [EBc][FAd][EBc][FAd] | %51
 [E^GBd]2 G/E/G/B/ e[Ge] [B,EG][B,EG] | [A,CEA]2 [B,E^G]2 [A,CEA]2 [B,EG]2 | %53
 [A,CEA]2 ^G/E/G/B/ e[ce] [CEA][CEA] | [EBd]2 [EAc]2 [EBd]2 [EAc]2 | %55
 [EBd]2 [EAc]2 [Cc][A,A][Cc][Ee] | [Aa]ecA x2 [CA]2 | [Ec]2 [C,A,]4 [C,A,]2 | %58
 [A,C]2 [F,A,]2 [FAd]3 [FAd] | [^Gd]2 [Ac]2 [EB]4 | [A,EA]2 [CA]4 [CA]2 | [Ac]2 [F,A,]4 [F,A,]2 | %62
 [F,D]2 [D,_B,]2 [FBd]3 [FAd] | [^Gd]2 [Ac]2 [EB]4 | AcA=G FE^F[^DF] | E[Ad]BA ^G[c=f]ed | %66
 c[ea]fd [ce]a[Be]^g | .a2 A2 z4 |] %68
V:3
!f! A,,C,E,A, A,,C,E,A, | A,, A,2 A,2 A,2 A, | ^G,,B,,D,^G, G,,B,,D,G, | A,, A,2 A,2 A,2 A, | %4
 [B,,B,]2 [C,C]2 z2 [C,C]2 | [^G,,^G,]2 [A,,A,]2 z A,,A,=G, | F,F,,E,,E, D,D,,A,,A, | %7
 E,E,,E,E, E,E,E,E, | E,E,F,^F, G,E,=F,D, | C,C,C,C, C,C,C,C, | C,C,C,C, C,C,C,C, | %11
 ^C,^C,,E,,G,, C,G,E,C, | D,D,D,D, D,D,D,D, | D,D,D,D, D,D,D,D, | ^D,^D,,^F,,A,, D,A,^F,D, | %15
 E,,G,,B,,E, ^F,,A,,C,^F, | G,,B,,D,G, A,,C,^F,A, | B,B,,E,G, B,B,B,,B,, | E,2 z2 z G,^F,E, | %19
 ^D,B,A,G, ^F,E,D,F, | E,G,,A,,C, B,,A,,B,,B,,, | E,,G,,B,,E, E,,G,,B,,E, | E,, E,2 E,2 E,2 E, | %23
 ^D,,^F,,B,,^D, D,,F,,B,,D, | E,, E,2 E,2 E,2 E, | [A,,A,]2 [G,,G,]2 z2 [G,,G,]2 | %26
 [^F,,^F,]2 [E,,E,]2 z E,,E,=D, | C,CB,B,, A,,A,E,E,, | B,,B,B,,B,, B,,B,,B,,B,, | %29
 A,,A,,A,,A,, D,D,D,D, | G,,_B,,D,G, G,,B,,D,G, | G,,G,G,G, G,G,G,G, | G,G,=F,F, F,F,D,=B,, | %33
 =F,,B,,D,F, =F,,B,,D,F, | F,F,E,E, E,E,D,D, | D,D,C,C, C,A,,E,,C,, | D,,F,,_B,,D, E,,G,,^C,E, | %37
 F,,A,,D,F, E,,G,,=C,E, | D,,F,,_B,,D, ^D,,^F,,A,,^D, | %39
 [E,,E,][E,,E,]/[E,,E,]/ [E,,E,][E,,E,] E,3 E, | ^D,E,D,E, D,E,D,E, | %41
 F,2 E,2[K:treble-8] [^GBe]3 [GBe] | [Ac^d]2 [^GBe]2 [GBe]3 [GBe] | %43
 [Ac^d]2 [^GBe]2[K:bass-8] [E,,E,]3 E, | ^D,E,D,E, D,E,D,E, | F,2 E,2[K:treble-8] [E^GB]3 [EGB] | %46
 [^DAc]2 [E^GB]2 [EGB]3 [EGB] | [^DAc]2 [E^GB]2[K:bass-8] [E,,E,]3 E, | ^D,E,D,E, D,E,D,E, | %49
 F,F,,F,F, F,F,F,F, | G,F,G,F, G,F,G,F, | E,2 E,,2 z2 E,E, | A,A,,E,,E, A,A,,E,,E, | %53
 A,A,, E,2 z2 A,A,, | ^G,,^G,A,A,, G,,G,A,A,, | ^G,,^G,A,E, C,A,,C,E, | [A,,A,]C,E,A, A,,C,E,A, | %57
 C,,E,,A,,C, C,,E,,A,,C, | F,,A,,C,F, B,,,D,,F,,B,, | E,,E,A,,C, E,D,E,E,, | A,,C,E,A, A,,C,E,A, | %61
 F,,A,,C,F, F,,A,,C,F, | D,,F,,_B,,D, D,,F,,B,,D, | E,,E,A,,C, E,D,E,E,, | [A,,A,]2 z E, A,CB,A, | %65
 ^G,=F,D,C, B,,A,,^G,,B,, | A,,C,D,F, E,D,E,E,, | A,,2 z2 z4 |] %68
V:4
 x8 | x8 | x8 | x8 | x2 [A,E]2 x4 | x2 [A,E]2 x4 | x8 | x8 | x8 | x8 | C6 G,2 | E2 ^C2 E2 G2 | %12
w: ||||||||||||
 G4 ^F4 | x8 | ^F2 ^D2 x2 A2 | G3 E A3 ^F | B,2 [G,B,]2 E2 C2 | x4 [B,E]2 [B,^D]2 | x g x6 | x8 | %20
w: ||||||||
 x8 | x8 | x8 | x8 | EE/E/ EE x4 | x2 [B,EG]2 x4 | x2 [EGB]2 B2 x2 | x8 | x8 | [C_E^F]4 x4 | x8 | %31
w: |||||||||||
 x8 | x8 | x8 | x8 | x8 | x4 G3 E | x8 | x8 | x4[K:bass] x4 | x8 | x4[K:treble+8] x4 | x8 | %43
w: ||||||||||||
 x4[K:bass] x4 | x8 | x4[K:treble+8] x4 | x8 | x4[K:bass] x4 | x8 |[K:treble] x8 | x8 | %51
w: ||||||||
 x2 [B,E]2 x4 | x8 | x2 [E,B,E]2 x4 | x8 | x3 [Ee] x4 | x4 aecA | x2 [CA]2 x4 | x8 | E4 A2 ^G2 | %60
w: |||||||||
 x8 | x2 [FA]2 x4 | x8 | E4 A2 ^G2 | [A,E]2 CB, A,A,^DC | [E,B,]=FFE DA [^GB]2 | EA [FA]2 Ac^GB | %67
w: ||||. * * * * * *|||
 .[Ae]2 A,2 x4 |] %68
w: |
V:5
 x8 | x8 | x8 | x8 | x8 | x4 A3 x | x8 | x8 | x8 | x8 | x8 | x8 | x8 | x8 | x8 | x8 | x8 | x8 | %18
 x8 | x8 | x8 | x8 | x8 | x8 | x8 | x8 | x8 | x8 | x8 | x8 | x8 | x8 | x8 | x8 | x8 | x8 | x8 | %37
 x8 | x8 | x4[K:bass] x4 | x8 | x4[K:treble+8] x4 | x8 | x4[K:bass] x4 | x8 | x4[K:treble+8] x4 | %46
 x8 | x4[K:bass] x4 | x8 |[K:treble] x8 | x8 | x8 | x8 | x8 | x8 | x8 | x8 | x8 | x8 | x8 | x8 | %61
 x8 | x8 | x8 | x8 | x8 | x8 | x8 |] %68
V:6
 x8 | x8 | x8 | x8 | x8 | x8 | x8 | x8 | x8 | x8 | x8 | x8 | x8 | x8 | x8 | x8 | x8 | x8 | x8 | %19
 x8 | x8 | x8 | x8 | x8 | x8 | x8 | x8 | x8 | x8 | x8 | x8 | x8 | x8 | x8 | x8 | x8 | x8 | x8 | %38
 x8 | x4[K:bass] x4 | x8 | x4[K:treble+8] x4 | x8 | x4[K:bass] x4 | x8 | x4[K:treble+8] x4 | x8 | %47
 x4[K:bass] x4 | x8 |[K:treble] x8 | x8 | x8 | x8 | x8 | x8 | x8 | x2 [CA]4 x2 | x8 | x8 | x8 | %60
 x8 | x8 | x8 | x8 | x8 | x8 | x8 | x8 |] %68

